img/services/flutter.svg

<svg height="64" width="64" xmlns="http://www.w3.org/2000/svg" xmlns:xlink="http://www.w3.org/1999/xlink"><clipPath id="a"><path d="m959.4 500-279.6 279.7 279.6 279.7h-319.5l-279.7-279.7 279.7-279.7zm-319.5-479.3-519.3 519.3 159.8 159.8 679-679.1h-319.5z"/></clipPath><clipPath id="b"><path d="m959.4 500-279.6 279.7 279.6 279.7h-319.5l-279.7-279.7 279.7-279.7zm-319.5-479.3-519.3 519.3 159.8 159.8 679-679.1h-319.5z"/></clipPath><clipPath id="c"><path d="m959.4 500-279.6 279.7 279.6 279.7h-319.5l-279.7-279.7 279.7-279.7zm-319.5-479.3-519.3 519.3 159.8 159.8 679-679.1h-319.5z"/></clipPath><clipPath id="d"><path d="m959.4 500-279.6 279.7 279.6 279.7h-319.5l-279.7-279.7 279.7-279.7zm-319.5-479.3-519.3 519.3 159.8 159.8 679-679.1h-319.5z"/></clipPath><linearGradient id="e" gradientUnits="userSpaceOnUse" x1="566.635" x2="685.65" y1="970.339" y2="851.324"><stop offset="0" stop-color="#1a237e" stop-opacity=".4"/><stop offset="1" stop-color="#1a237e" stop-opacity="0"/></linearGradient><clipPath id="f"><path d="m959.4 500-279.6 279.7 279.6 279.7h-319.5l-279.7-279.7 279.7-279.7zm-319.5-479.3-519.3 519.3 159.8 159.8 679-679.1h-319.5z"/></clipPath><radialGradient id="g" cx="7824.659" cy="-2855.979" gradientTransform="matrix(.25 0 0 -.25 -1812 -622.5)" gradientUnits="userSpaceOnUse" r="5082.889"><stop offset="0" stop-color="#fff" stop-opacity=".1"/><stop offset="1" stop-color="#fff" stop-opacity="0"/></radialGradient><g transform="matrix(.061615 0 0 .061615 -1.430818 -1.2754)"><g clip-path="url(#a)"><path d="m360.3 779.7 159.7 159.8 439.4-439.5h-319.5z" fill="#39cefd"/></g><path clip-path="url(#b)" d="m639.9 20.7h319.5l-679 679.1-159.8-159.8z" fill="#39cefd"/><path clip-path="url(#c)" d="m520 939.5 119.9 119.8h319.5l-279.6-279.6z" fill="#03569b"/><path clip-path="url(#d)" d="m757 857.4-77.2-77.7-159.8 159.8z" fill="url(#e)"/><g clip-path="url(#f)"><path d="m360.282 779.645 159.804-159.805 159.814 159.805-159.814 159.805z" fill="#16b9fd"/></g><path d="m959.4 500-279.6 279.7 279.6 279.7h-319.5l-279.7-279.7 279.7-279.7zm-319.5-479.3-519.3 519.3 159.8 159.8 679-679.1h-319.5z" fill="url(#g)"/></g></svg>

<?xml version="1.0" encoding="utf-8"?>
<!-- Generator: Adobe Illustrator 23.0.1, SVG Export Plug-In . SVG Version: 6.00 Build 0)  -->
<svg version="1.1" id="Layer_1" xmlns="http://www.w3.org/2000/svg" xmlns:xlink="http://www.w3.org/1999/xlink" x="0px" y="0px"
	 viewBox="0 0 120 60" style="enable-background:new 0 0 120 60;" xml:space="preserve">
<style type="text/css">
	.st0{clip-path:url(#SVGID_2_);}
	.st1{fill:#39CEFD;}
	.st2{clip-path:url(#SVGID_4_);fill:#39CEFD;}
	.st3{clip-path:url(#SVGID_6_);fill:#03569B;}
	.st4{clip-path:url(#SVGID_8_);fill:url(#SVGID_9_);}
	.st5{clip-path:url(#SVGID_11_);}
	.st6{fill:#16B9FD;}
	.st7{fill:url(#SVGID_12_);}
	.st8{fill:#808080;}
</style>
<g transform="matrix(.03881911 0 0 .03881916 -.560501 8.162276)">
	<g>
		<defs>
			<path id="SVGID_1_" d="M959.4,500L679.8,779.7l279.6,279.7H639.9L520,939.5L360.2,779.7L639.9,500H959.4z M639.9,20.7L120.6,540
				l159.8,159.8l679-679.1H639.9z"/>
		</defs>
		<clipPath id="SVGID_2_">
			<use xlink:href="#SVGID_1_"  style="overflow:visible;"/>
		</clipPath>
		<g class="st0">
			<path class="st1" d="M520,939.5L959.4,500H639.9L360.3,779.7L520,939.5z"/>
		</g>
	</g>
	<g>
		<defs>
			<path id="SVGID_3_" d="M959.4,500L679.8,779.7l279.6,279.7H639.9L520,939.5L360.2,779.7L639.9,500H959.4z M639.9,20.7L120.6,540
				l159.8,159.8l679-679.1H639.9z"/>
		</defs>
		<clipPath id="SVGID_4_">
			<use xlink:href="#SVGID_3_"  style="overflow:visible;"/>
		</clipPath>
		<path class="st2" d="M120.6,540L639.9,20.7h319.5l-679,679.1L120.6,540z"/>
	</g>
	<g>
		<defs>
			<path id="SVGID_5_" d="M959.4,500L679.8,779.7l279.6,279.7H639.9L520,939.5L360.2,779.7L639.9,500H959.4z M639.9,20.7L120.6,540
				l159.8,159.8l679-679.1H639.9z"/>
		</defs>
		<clipPath id="SVGID_6_">
			<use xlink:href="#SVGID_5_"  style="overflow:visible;"/>
		</clipPath>
		<path class="st3" d="M639.9,1059.3h319.5L679.8,779.7L520,939.5L639.9,1059.3z"/>
	</g>
	<g>
		<defs>
			<path id="SVGID_7_" d="M959.4,500L679.8,779.7l279.6,279.7H639.9L520,939.5L360.2,779.7L639.9,500H959.4z M639.9,20.7L120.6,540
				l159.8,159.8l679-679.1H639.9z"/>
		</defs>
		<clipPath id="SVGID_8_">
			<use xlink:href="#SVGID_7_"  style="overflow:visible;"/>
		</clipPath>
		
			<linearGradient id="SVGID_9_" gradientUnits="userSpaceOnUse" x1="-20688.2891" y1="-100372.8516" x2="-20212.2285" y2="-100848.9141" gradientTransform="matrix(9.704777e-03 0 0 9.704790e-03 -24746.1563 -10233.8672)">
			<stop  offset="0" style="stop-color:#1A237E;stop-opacity:0.4"/>
			<stop  offset="1" style="stop-color:#1A237E;stop-opacity:0"/>
		</linearGradient>
		<path class="st4" d="M679.8,779.7L520,939.5l237-82.1L679.8,779.7z"/>
	</g>
	<g>
		<defs>
			<path id="SVGID_10_" d="M959.4,500L679.8,779.7l279.6,279.7H639.9L520,939.5L360.2,779.7L639.9,500H959.4z M639.9,20.7L120.6,540
				l159.8,159.8l679-679.1H639.9z"/>
		</defs>
		<clipPath id="SVGID_11_">
			<use xlink:href="#SVGID_10_"  style="overflow:visible;"/>
		</clipPath>
		<g class="st5">
			<path class="st6" d="M360.3,779.6l159.8-159.8l159.8,159.8L520.1,939.5L360.3,779.6z"/>
		</g>
	</g>
	
		<radialGradient id="SVGID_12_" cx="201582.1875" cy="93969.875" r="5082.8887" gradientTransform="matrix(9.704777e-03 0 0 9.704790e-03 -24746.1563 -10233.8672)" gradientUnits="userSpaceOnUse">
		<stop  offset="0" style="stop-color:#FFFFFF;stop-opacity:0.1"/>
		<stop  offset="1" style="stop-color:#FFFFFF;stop-opacity:0"/>
	</radialGradient>
	<path class="st7" d="M959.4,500L679.8,779.7l279.6,279.7H639.9L520,939.5L360.2,779.7L639.9,500H959.4z M639.9,20.7L120.6,540
		l159.8,159.8l679-679.1H639.9z"/>
</g>
<g transform="matrix(1.0352624 0 0 1.0352624 -1.939178 -1.035154)">
	<path class="st8" d="M41.1,20.1h10.5v2h-8.3v6.2h7.5v2h-7.5v7.8h-2.1V20.1z"/>
	<path class="st8" d="M54.1,20.1h2.1v18.1h-2.1V20.1z"/>
	<path class="st8" d="M64.1,38.6c-1.6,0-2.7-0.5-3.6-1.4c-0.8-0.9-1.2-2.2-1.2-3.8v-8.1h2.1v7.8c0,1.2,0.3,2.1,0.8,2.7
		c0.6,0.6,1.3,0.9,2.3,0.9c0.7,0,1.4-0.2,1.9-0.6c0.6-0.4,1-0.9,1.3-1.5c0.3-0.6,0.5-1.3,0.5-2v-7.3h2.1v12.9h-2v-1.9h-0.1
		c-0.4,0.6-0.9,1.2-1.7,1.6C65.8,38.4,65,38.6,64.1,38.6z"/>
	<path class="st8" d="M78.7,38.4c-0.5,0-1-0.1-1.5-0.3c-0.4-0.2-0.8-0.4-1.1-0.7c-0.3-0.3-0.6-0.7-0.8-1.1s-0.3-0.9-0.3-1.5v-7.6
		h-2.3v-1.9h2.3v-3.6h2.1v3.6h3.1v1.9h-3.1v7c0,0.7,0.1,1.2,0.4,1.6c0.3,0.4,0.8,0.6,1.4,0.6c0.5,0,1-0.1,1.4-0.4v2.1
		c-0.3,0.1-0.5,0.2-0.8,0.3C79.5,38.4,79.1,38.4,78.7,38.4z"/>
	<path class="st8" d="M87.8,38.4c-0.5,0-1-0.1-1.5-0.3c-0.4-0.2-0.8-0.4-1.1-0.7c-0.3-0.3-0.6-0.7-0.8-1.1s-0.3-0.9-0.3-1.5v-7.6H82
		v-1.9h2.3v-3.6h2.1v3.6h3.1v1.9h-3.1v7c0,0.7,0.1,1.2,0.4,1.6c0.3,0.4,0.8,0.6,1.4,0.6c0.5,0,1-0.1,1.4-0.4v2.1
		c-0.3,0.1-0.5,0.2-0.8,0.3C88.6,38.4,88.2,38.4,87.8,38.4z"/>
	<path class="st8" d="M97.3,38.6c-1.2,0-2.3-0.3-3.3-0.9c-1-0.6-1.7-1.4-2.3-2.4c-0.5-1-0.8-2.2-0.8-3.5c0-1.2,0.3-2.4,0.8-3.4
		c0.5-1,1.3-1.9,2.2-2.5c0.9-0.6,2-0.9,3.3-0.9c1.3,0,2.4,0.3,3.3,0.9c0.9,0.6,1.6,1.3,2.1,2.3c0.5,1,0.8,2.1,0.8,3.4
		c0,0.3,0,0.5-0.1,0.7H93c0.1,1,0.3,1.8,0.7,2.5c0.4,0.7,1,1.2,1.6,1.5c0.7,0.3,1.3,0.5,2,0.5c1.7,0,2.9-0.8,3.8-2.3l1.8,0.9
		c-0.6,1-1.3,1.9-2.3,2.5C99.8,38.3,98.7,38.6,97.3,38.6L97.3,38.6z M101,30.4c0-0.5-0.2-1.1-0.5-1.6c-0.3-0.5-0.7-1-1.3-1.4
		c-0.6-0.4-1.3-0.6-2.2-0.6c-1,0-1.9,0.3-2.6,1c-0.7,0.6-1.1,1.5-1.4,2.6L101,30.4z"/>
	<path class="st8" d="M105.8,25.3h2v2.1h0.1c0.3-0.7,0.7-1.3,1.5-1.7c0.7-0.5,1.5-0.7,2.3-0.7c0.6,0,1.1,0.1,1.5,0.3v2.3
		c-0.5-0.3-1.1-0.4-1.8-0.4c-0.6,0-1.2,0.2-1.7,0.5c-0.5,0.4-0.9,0.8-1.3,1.4c-0.3,0.6-0.5,1.2-0.5,1.9v7.2h-2.1L105.8,25.3z"/>
</g>
</svg>
